X:1
T: Upton upon Severn Stick Dance
L: 1/8
M: 6/8
R: jig
K: Gmajor
d | "G"dBB BAG | "C" AGA BGE |"G/B" DGG GBd |"C" edB "D" A2 d|
"G"dBB BAG | "C" AGA BGE |"D" DGG G2B |"Am"AG"D"F "G" G2 :|:
G | "G" GBd g2d | "C" edc "D" BcA | "G" GBd g2d | "C" edB "D"A2 g|
"G" GBd g2d | "C" edc "G/B" Bcd | "C" ege "D" dBG | "G" AGA "G" G2 :|| 